build/svg/cmd/sc_toggleaxistitle.svg

<?xml version="1.0" encoding="UTF-8" standalone="no"?>
<svg
   xmlns:dc="http://purl.org/dc/elements/1.1/"
   xmlns:cc="http://creativecommons.org/ns#"
   xmlns:rdf="http://www.w3.org/1999/02/22-rdf-syntax-ns#"
   xmlns:svg="http://www.w3.org/2000/svg"
   xmlns="http://www.w3.org/2000/svg"
   xmlns:sodipodi="http://sodipodi.sourceforge.net/DTD/sodipodi-0.dtd"
   xmlns:inkscape="http://www.inkscape.org/namespaces/inkscape"
   viewBox="0 0 16 16"
   version="1.1"
   id="svg6"
   sodipodi:docname="sc_toggleaxistitle.svg"
   inkscape:export-filename="/home/jupiter007/Libreoffice yaru theme fullcolor/build/cmd/sc_toggleaxistitle.png"
   inkscape:export-xdpi="96"
   inkscape:export-ydpi="96"
   inkscape:version="0.92.5 (2060ec1f9f, 2020-04-08)">
  <metadata
     id="metadata12">
    <rdf:RDF>
      <cc:Work
         rdf:about="">
        <dc:format>image/svg+xml</dc:format>
        <dc:type
           rdf:resource="http://purl.org/dc/dcmitype/StillImage" />
      </cc:Work>
    </rdf:RDF>
  </metadata>
  <defs
     id="defs10" />
  <sodipodi:namedview
     pagecolor="#ffffff"
     bordercolor="#666666"
     borderopacity="1"
     objecttolerance="10"
     gridtolerance="10"
     guidetolerance="10"
     inkscape:pageopacity="0"
     inkscape:pageshadow="2"
     inkscape:window-width="1920"
     inkscape:window-height="1011"
     id="namedview8"
     showgrid="false"
     inkscape:zoom="20.85965"
     inkscape:cx="-3.2253491"
     inkscape:cy="6.7243231"
     inkscape:window-x="0"
     inkscape:window-y="32"
     inkscape:window-maximized="1"
     inkscape:current-layer="svg6" />
  <path
     sodipodi:nodetypes="cccscsccccccccscscccccc"
     inkscape:connector-curvature="0"
     id="path4237-1"
     d="M 4.994115,1.999708 C 3.735915,2.014208 2.815224,1.969104 2.062474,2.3844736 1.686104,2.5921336 1.389243,2.9438605 1.224583,3.3825205 1.059913,3.8211905 0.999974,4.342108 0.999974,4.9997082 v 1.488281 4.5123008 c 0,0.65761 0.0599,1.178578 0.224609,1.617189 0.16468,0.438611 0.461531,0.788525 0.837891,0.996094 0.75272,0.41513 1.673541,0.371649 2.931641,0.386719 h 0.002 6.005861 0.0039 c 1.258191,-0.0145 2.178891,0.0306 2.931642,-0.384766 0.376369,-0.20766 0.67322,-0.559387 0.837891,-0.998047 0.164537,-0.438671 0.224617,-0.959579 0.224617,-1.617189 V 6.4665052 4.9997082 c 0,-0.6576002 -0.0599,-1.1785777 -0.22461,-1.6171877 -0.164679,-0.4386 -0.461531,-0.7885338 -0.83789,-0.9960937 -0.75277,-0.41513 -1.673601,-0.3716388 -2.931692,-0.3867188 h -0.002 -6.005861 z"
     style="font-style:normal;font-variant:normal;font-weight:normal;font-stretch:normal;font-size:15px;line-height:125%;font-family:Ubuntu;-inkscape-font-specification:Ubuntu;text-align:center;letter-spacing:0px;word-spacing:0px;writing-mode:lr-tb;text-anchor:middle;display:inline;opacity:0.6;fill:#000000;fill-opacity:1;stroke:none;stroke-width:0.99980211" />
  <path
     inkscape:connector-curvature="0"
     id="path1993"
     d="M 7.983343,3.0268928 C 6.426762,3.0376888 4.873353,3.0151408 3.323402,3.0656678 2.862173,3.1083358 2.307214,3.2720872 2.168062,3.7756346 1.949068,4.410981 2.059648,5.1094222 2.022266,5.7575592 c -0.0078,2.297084 -0.02297,3.596428 0.02152,5.8857788 0.0391,0.46193 0.202551,1.012667 0.698756,1.163667 0.632456,0.225082 1.284144,0.12274 1.935974,0.154298 1.424235,0.0068 2.850563,0.01102 4.27642,0.01131 1.704531,3.5e-4 1.408388,-0.005 3.107191,-0.01851 0.511912,-0.01201 1.1837,0.01993 1.584746,-0.405191 0.421096,-0.539783 0.287073,-1.268022 0.322744,-1.903787 0.01187,-2.4443228 0.02769,-3.9110948 -0.0219,-6.3567945 C 13.898437,3.8862902 13.777725,3.4253784 13.372578,3.2438553 12.704409,2.9497579 11.946374,3.0758364 11.246657,3.0382826 9.492249,3.0264796 9.737782,3.0257986 7.983343,3.0268928 Z"
     style="opacity:1;vector-effect:none;fill:#ffffff;fill-opacity:1;stroke:none;stroke-width:1;stroke-linecap:round;stroke-linejoin:bevel;stroke-miterlimit:4;stroke-dasharray:none;stroke-dashoffset:0;stroke-opacity:1"
     sodipodi:nodetypes="cccccccsccccccc" />
  <path
     d="m 2.994115,10.999707 h 1 3 6.000001 V 9.9997078 h -1 v -3 H 8.994115 v 3 h -2 v -5 h -3 v 5 h -1 z"
     id="path2"
     inkscape:connector-curvature="0"
     style="fill:#232629;fill-opacity:1"
     sodipodi:nodetypes="ccccccccccccccc" />
  <rect
     style="opacity:1;fill:#e95420;fill-opacity:1;fill-rule:evenodd;stroke:none;stroke-width:1.78885436;stroke-linecap:butt;stroke-linejoin:round;stroke-miterlimit:4;stroke-dasharray:none;stroke-opacity:1"
     id="rect836"
     width="2"
     height="8"
     x="0.9999997"
     y="4" />
  <rect
     transform="rotate(90)"
     style="opacity:1;fill:#e95420;fill-opacity:1;fill-rule:evenodd;stroke:none;stroke-width:1.78885436;stroke-linecap:butt;stroke-linejoin:round;stroke-miterlimit:4;stroke-dasharray:none;stroke-opacity:1"
     id="rect849"
     width="2"
     height="8"
     x="12"
     y="-11.999999" />
</svg>

<svg xmlns="http://www.w3.org/2000/svg" viewBox="0 0 16 16"><path d="M4.994 2c-1.258.014-2.179-.03-2.932.384a1.88 1.88 0 00-.837.999C1.06 3.82 1 4.343 1 5v6c0 .658.06 1.179.225 1.617.164.44.461.789.837.997.753.415 1.674.371 2.932.386h6.012c1.258-.014 2.179.03 2.932-.384a1.88 1.88 0 00.837-.999c.165-.438.225-.96.225-1.617V5c0-.658-.06-1.179-.225-1.617a1.875 1.875 0 00-.837-.997c-.753-.415-1.674-.371-2.932-.386H4.998z" style="line-height:125%;-inkscape-font-specification:Ubuntu;text-align:center" font-weight="400" font-size="15" font-family="Ubuntu" letter-spacing="0" word-spacing="0" text-anchor="middle" opacity=".6"/><path d="M7.983 3.027c-1.556.01-3.11-.012-4.66.039-.46.042-1.016.206-1.155.71-.219.635-.108 1.333-.146 1.982-.008 2.297-.023 3.596.022 5.885.039.462.202 1.013.699 1.164.632.225 1.284.123 1.936.154 1.424.007 2.85.011 4.276.012 1.704 0 1.408-.005 3.107-.019.512-.012 1.184.02 1.585-.405.421-.54.287-1.268.323-1.904.011-2.444.027-3.911-.022-6.357-.05-.402-.17-.863-.575-1.044-.669-.294-1.427-.168-2.126-.206-1.755-.012-1.51-.012-3.264-.011z" fill="#fff"/><path d="M2.994 11h10v-1h-1V7h-3v3h-2V5h-3v5h-1z" fill="#232629"/><path fill="#e95420" fill-rule="evenodd" d="M1 4h2v8H1zM12 12v2H4v-2z"/></svg>
